data/images/com.github.evan-buss.yin-yang.symbolic.svg

<?xml version="1.0" encoding="UTF-8" standalone="no"?>
<!-- Generator: Gravit.io -->

<svg
   xmlns:gravitDesigner="http://ns.gravit.io/"
   xmlns:dc="http://purl.org/dc/elements/1.1/"
   xmlns:cc="http://creativecommons.org/ns#"
   xmlns:rdf="http://www.w3.org/1999/02/22-rdf-syntax-ns#"
   xmlns:svg="http://www.w3.org/2000/svg"
   xmlns="http://www.w3.org/2000/svg"
   xmlns:xlink="http://www.w3.org/1999/xlink"
   xmlns:sodipodi="http://sodipodi.sourceforge.net/DTD/sodipodi-0.dtd"
   xmlns:inkscape="http://www.inkscape.org/namespaces/inkscape"
   style="isolation:isolate"
   viewBox="0 0 12 12"
   width="16"
   height="16"
   version="1.1"
   id="svg4032"
   sodipodi:docname="com.github.evan-buss.yin-yang.symbolic.svg"
   inkscape:version="0.92.3 (2405546, 2018-03-11)">
  <metadata
     id="metadata4038">
    <rdf:RDF>
      <cc:Work
         rdf:about="">
        <dc:format>image/svg+xml</dc:format>
        <dc:type
           rdf:resource="http://purl.org/dc/dcmitype/StillImage" />
        <dc:title></dc:title>
      </cc:Work>
    </rdf:RDF>
  </metadata>
  <defs
     id="defs4036" />
  <sodipodi:namedview
     pagecolor="#ffffff"
     bordercolor="#666666"
     borderopacity="1"
     objecttolerance="10"
     gridtolerance="10"
     guidetolerance="10"
     inkscape:pageopacity="0"
     inkscape:pageshadow="2"
     inkscape:window-width="2560"
     inkscape:window-height="1377"
     id="namedview4034"
     showgrid="true"
     inkscape:zoom="28.054688"
     inkscape:cx="8.2489692"
     inkscape:cy="12.01402"
     inkscape:window-x="0"
     inkscape:window-y="30"
     inkscape:window-maximized="1"
     inkscape:current-layer="svg4032"
     units="px">
    <inkscape:grid
       type="xygrid"
       id="grid4321" />
  </sodipodi:namedview>
  <switch
     id="switch4030"
     transform="matrix(0.74771014,0,0,0.74771014,0.03551621,0.01869274)">
    <g
       id="g4028">
      <path
         d="m 13.692,3.144 c 1.112,1.31 1.785,3.005 1.785,4.856 0,4.138 -3.362,7.5 -7.5,7.5 -4.139,0 -7.5,-3.362 -7.5,-7.5 0,-4.138 3.361,-7.5 7.5,-7.5 0.322,0 0.64,0.02 0.95,0.063 1.406,0.529 2.513,1.98 2.617,3.628 0,2.015 -1.674,3.329 -3.65,3.329 L 7.706,7.532 c -3.255,0.077 -4.659,2.542 -4.432,4.474 0.293,2.483 2.475,3.456 4.501,3.326 v 0.012 c 0.063,0.001 0.125,0 0.189,0 4.054,0 7.349,-3.362 7.349,-7.5 0,-1.777 -0.608,-3.412 -1.621,-4.7 z M 6.98,4.035 C 6.98,3.472 7.437,3.016 8,3.016 c 0.563,0 1.02,0.456 1.02,1.019 0,0.563 -0.457,1.02 -1.02,1.02 -0.563,0 -1.02,-0.457 -1.02,-1.02 z"
         id="Compound Shape"
         inkscape:connector-curvature="0"
         style="fill:#ffffff;fill-rule:evenodd" />
      <path
         d="m 7.977,0.476 c -4.139,0 -7.5,3.372 -7.5,7.524 0,4.152 3.361,7.524 7.5,7.524 4.138,0 7.5,-3.372 7.5,-7.524 0,-4.152 -3.362,-7.524 -7.5,-7.524 z M 7.588,0.475 c 2.164,0 3.563,1.715 3.712,3.805 0,2.027 -1.599,2.938 -3.839,2.938 L 7.246,7.23 c -2.731,0.125 -4.268,2.505 -4.268,4.52 0,1.156 0.451,1.898 1.296,2.778"
         id="path3871"
         stroke-miterlimit="4"
         inkscape:connector-curvature="0"
         style="vector-effect:non-scaling-stroke;fill:none;stroke:#ffffff;stroke-width:1;stroke-linecap:butt;stroke-linejoin:miter;stroke-miterlimit:4" />
      <circle
         cx="8"
         cy="12.210938"
         r="1.0195312"
         id="Ellipse"
         style="vector-effect:non-scaling-stroke;fill:#ffffff" />
    </g>
    <foreignObject
       requiredExtensions="http://ns.gravit.io/">
      <gravitDesigner:gravitElementRef
         xlink:href="#cy2wjnza3h9Ivi0qRXGfJTIvHPY19cCA" />
    </foreignObject>
  </switch>
  <gravitDesigner:gravitGraphicSource
     id="cy2wjnza3h9Ivi0qRXGfJTIvHPY19cCA"
     version="1"><![CDATA[eMKcw61Yw7vCr8Kqw5YSw75XGk9zf8Opw67CkcO3Yyc3KQoqwqjDgMOCwo0ow4fCncKGw7dDQAREwrE5w7/DuwVEN8K2J23Dr03Dk8Kkw4nDhQ1bwobCtcK+wplZw7PCrcKZw4FfBj8NXgfCqcOhOcKDwpfDgcO3woPDly/Cv8K0woLDsSFOD8Knw4TDvm7DpRvDqcOzwqPDlCjDvFpgRcKHw5zCsQfCr0V2cl4GacKRw5cDwr4MGMOAMMOAHQ7Ch1fDrMOfw7XCoE/DtQkWw4dDw4QYw6Y+wp/DhgLDjmjCm2PCrmZFRsOiw77DkTJPw4jCqh7DksOgSVd9w5zCmznCq0/CrsKyUSB3wqLDt8KXL8KDw7rDq1DDthjChsOhwrg7w7oiCC17w4LDhcK+wq1nLALCo8KHA2rCscKKwojCnhLDnsKTIyvDrsOQbzPCocOEwobCmDt6KwohBMOswrkbemt7fTofw6jCnmTCrMKuZwUbU8O6QWYrwpLCtGnDky3DijBXwoREOcKEw5cOwr01wpTDocOuM2d3d8OuYC06M8OCGkHDj3Zbw5FJwpfCmxskw4rCnMKSw61qEsODwpARMMKWwpDDssO0w7HCisOLVsKHPmpmwr51wobDnsOQb2DCnTvDr8OvL8KDw4xxwotLMXhNTlHDlMOeGcKJw6UfwrImKMO1w5Mic8OrL8OwC1R/w6DClx/CocOPEMKCYijCiVE4BMOBJEkRw6QLw7bCmW4OHMOHCMKMw4JgGHd+JMOrwpnDpsOhEA1ewrHCl0Fiw4ROF3wEw4fDsR/DicOaworCnyPCo3IaHXdiBEnCscK4wonDusKEMQ/CmcOtZMOyw6NpM8OTPA9ewqHCm0rCmsOGGsKBUcKPwpTDmkfCkVV/w40aw7bDnW7Dg8Knw5vCuMKxw6fDq8OLDcOaDcKiw6gZOC0aw7Z+w7pSG8O5w5LCncOvwoPCr8K1J8O/wqrDpSvChsKvUMKMcBfCvMOCwpnDkMOkw6hOZsOMwpHDsA7CqzlfHUVEHnzCrREcw5fDpWteD8K4CcO0wqbCgcKVw6zCkTDCtQXCsMK+wqBwJMKNIhXDhjFywr7Cp8Ogw4HDncKIw5/DnRBJPsO8AcOMwrYVw4NSw7fCsMOPEVbCkFkyX8Kcw5bDshvCnMKqwpHClMK7wr4Fw5vCrCLDucKxN03CuxhDJW/Cg003wrNhEMKxWMKSQMO3wrbDgcKNw4MNwpQWwq/DnXnCqsKcU8OVwovDnMKTw6rCqgLCpBBBwqxdw5Yxwq3DqgnDlTHCiMOQcxzCrMKgwoRTH8OsJ8KyGmwTwptVw4vCoBodw6fCsBFwKsKfVh/DqMOWwpRiOHHCvsOhfMOAQBJWw4TCocKRw7osI2bDjkjChcKkwqrDqsOQw7nDk8OBe8OMbMKgw6bCuknCgcKpw4fDkcO7BxQQw6fCiXZYex7Cq8KKwoYlbWxiwrUhTSVhcGPCjV1GSGfDlQXCncKqYMKUw6I/cB0UwoHDkTbDoMKnwpvCjsO7DcOUVsOESMO8w60YecOjw4zCtWXDn1BGwrlIb1Y4M3PDrcKVfcKhw69WwpXCuAREwqnDpMKhw4fCrgFqegYcwq0Yw7cdw58GwodlZRt6wqBzwrpPTlVtC8OywqjDkFxTw7Inw7JaHSEpC8KVw6spwpluO3RQGjQQw4rDgFHDu1DDk3M/eTgzLMOJIcK2wrzCnjEvOcORe8OIB8K+WQAPZ2N0wqRBwqDCs8OKw5XDtnXDijxMH8KZIsKJw7Mxw5DCnsKgw5zDi8KEwqrDthFuYXZICRsowr0sw7RcUsKNIylMwrVsw4l1VsOpwpo3w6rDjWzDkE01ZR/CokcewrLCsFEvDwF+IsOEwoExV8ODFFbCiSt6HsKZw6fCs8KHw6sgMcOJw5jDo8OfOnTDhsKrZ8KaAMO+dR7DkinDlMK+wrPCqMK1w505w7fDqcOOwp4pbVzDjcOlw604w4LDjRPDmMOCw7TDqMONwoYOZl0CEMOfJsK8DsK9NcO0Y2bCg8K+wo1rd8OuwqLDhyJPw5Q+w7rDosKIFSsaw4BvIj8Nw7dFwrbCnkPDqjpZwqfCoRfDssOIJsK7wrPDgcKJw6tFXk3DlVspw7nDrxMmTMKRWMKdwql6CcKzEcOiBMKCw5HCtcKoPjAMR8Oxw59Lwphww73CocO+worCpMKJfCNbwprCp8Kiw7jDiMKOwr00CEPDiEt3wr43A8OKWsKxa0TCucOzw4cZwrTDsR3DusOIwp1uwr7DkmEVwrDDnhpiCwh3wqLDicKac10xw5bCr0Y6w5Nxw6Ipd8KOwqvColQYw6NKw7DDl8O9w7ocEsKewonCjVxjLxg+E1HChjZ5w6ROJ8KKwoI0bxrCjD8VwpDDjxBMw6MowozDoMK3w4h8w5xSwp/CocO7AUMwwoEgdUHCg1DCvMKJw5AtPhBKw7TCo8Ozc27Dl8KAw43DisO8w7PCqsKYwqjCoGvDn8KSw5fCp8Kxw6TCkxcGE8KFwpIfHyMaWGbCtjgFw4JTJMKILT0TWMOOOsKtccKiFC0yw59uwr3DosOKeMKxMMOdwrLCmcOLwrTCqE7DqSQHw7tRwrvDvnErwrJQWG5MXBxZPCvCgRfCgjVKwqXCvEzDmMOrKcOKw6DDscOZfFoRClsUw4cqw5PDhMOyw6RBw5ECw4vCri47RlIzZlbCi8KcNsKlBzfCrcKuB8Ouw6rDu2PCkcOaw73Ds8OSw67DrMKGwp3Cg192woPCn3bCg8OXXSvDmQ1edl0rwrDDq8OWc8OXNAPCu8KmG8OYDcKGw6VwCCZORcOVecKoHcO6wqnCvVbDsGjCusOKw6x4wprDq8OqdG8LXMOAw6/DrWTCsRYRdMK8EMOQwrwddMODbhvDi3UPYcOWXsOZwqYFfQDDl8OJclcnZ8KGwpHCh8OocFgnw6fCnsKuwo0fOMOSLMK4BsK0M8OiDsKcwp3CvcKVw4JxacKibDXCjkkoJXvCuloEwooWw609w5PDl8OVworCsSJvCkHCp8Krw7VregnCmjLDk8OTw4UtCsKyw5bDgV/ClEnCkcOzAg7DojAjRcK+w65EfMKDwrfDiklPV8Orw4AUw79Awph9wrjCq8OdwoE7wr/DqsKiw6PDvsOGLw3CpwFdw6HCkiXCnsK8OX5UBHoWwqlKacKLwrzCrV3DhMKKw6vDu8OVVMKyw63DncKBwp5fTWnCvMK7W1fCiV3Cl8KVdl1aw5rDtcOyw5LCrk1MwrsmM8Otw77Ct8OmesOXbjTDnm7CuXN8w7PDl1cqHsOlJ8OnHMKpWljClQjCu8O0PSU+wpLCgTfDs8KSw5bDgBvCh8Obw7FUHMOow5IRISfCisKJwq4owoHClMKww7p9RzdNw7PDjTl4IzPDmg3CvsOWwpzDvS01P8Kow4gIw6wVSMODIRU+U8OxwphNw4fChMOJw4LDhMOSwoLDo8ONwp4xFj7DqmDCrHMkDR/CosKcw556w5nCmmUBw6fCjsOQw4YmwqpyGFjDrDXDoMKeYmMFw5vDjXVOwoTCvMKyw4LClsOpwp7CocOiaHTDlUDCpGHDgsKoCmdqPzbDi3MFHC9mwrknw47DhUENwrxCw6VKZcOuwrrDjsObRQnCmMKQw4TDt0/CusOKJcOPw4jDi8KcwrbDoHHCrMKIw4vCkyvCmnvCl8Kmw57Dikpfw4trwoDDtHTCmcK4agJwR2hBFcKcPABGw5TDsWdywrl+wrzDhCkcS8OnwrhQw6l6wrhQw4fDm8Klwq8Lw6bCmMOSw5Q9QcO1LEVCQgEsbBPDkAN0P1LDqsKXw4t8LD/Dr8KOw7nCucK4worCusKHwoXCghTDrMOnw5VpH8Khwo7CpMKPY8OZwrFHwqvDiMKaw7csbRHDhjNuCj0xwrYVL8KjH8OePnYiw4MHAsKQw6nCq8OxwqxramAHYsKmwobDsnETW8KzwpMWwrFjwpVzw43DqcOZw7ElKV0qPV3CpARbYMOmw5d9KcO3wrdvwoPCk0DCrijCucOuF8O8fAESOcOMSirDngTCi8OwwqjDgFIZw44mwr/DngYsFcKcIF7CoUUWw7MTZwPDrcKFM8O1Viwww63CusKlV8KswrZvwrbDgcO7X8O5QsOca8OrUMKKwoTDv3xDw7fCh8KNw5bCt8K6wrNvwpbDmMOfw6/DuMK+WSDDoT0Swo7Cl8OWwoVKaFsSwrFFeMOxccOCVCTCkGlBdjrDgU8FMnfDoMKMdUrClThAchELDAbDjsOXw7oiwq/CkcOEKU9Uw7Q3NG8ww7IZwoEhGiXCu8OmDcOCw57Dv8OfwrM9w7dswp/CmsOfMzIiJ8KYchNvR8KJDBARw5pOwo01EUvCm8Kzwo3CpsKCwqDDlWbDlcOew4JEw7MOw5TDvjvCuH3DnsKjaMO9w5d0w4XDlsO+V0zDrFjCvsKqYsOzEAXDlnfCmh8Uw453w4jDoMOrfwDDv8K8w5cf]]></gravitDesigner:gravitGraphicSource>
</svg>

<?xml version="1.0" encoding="UTF-8" standalone="no"?><!-- Generator: Gravit.io --><svg xmlns="http://www.w3.org/2000/svg" xmlns:xlink="http://www.w3.org/1999/xlink" style="isolation:isolate" viewBox="0 0 16 16" width="16pt" height="16pt"><switch><g><path d=" M 13.692 3.144 C 14.804 4.454 15.477 6.149 15.477 8 C 15.477 12.138 12.115 15.5 7.977 15.5 C 3.838 15.5 0.477 12.138 0.477 8 C 0.477 3.862 3.838 0.5 7.977 0.5 C 8.299 0.5 8.617 0.52 8.927 0.563 C 10.333 1.092 11.44 2.543 11.544 4.191 C 11.544 6.206 9.87 7.52 7.894 7.52 L 7.706 7.532 C 4.451 7.609 3.047 10.074 3.274 12.006 C 3.567 14.489 5.749 15.462 7.775 15.332 L 7.775 15.344 C 7.838 15.345 7.9 15.344 7.964 15.344 C 12.018 15.344 15.313 11.982 15.313 7.844 C 15.313 6.067 14.705 4.432 13.692 3.144 Z  M 6.98 4.035 C 6.98 3.472 7.437 3.016 8 3.016 C 8.563 3.016 9.02 3.472 9.02 4.035 C 9.02 4.598 8.563 5.055 8 5.055 C 7.437 5.055 6.98 4.598 6.98 4.035 Z " fill-rule="evenodd" id="Compound Shape" fill="rgb(255,255,255)"/><path d=" M 7.977 0.476 C 3.838 0.476 0.477 3.848 0.477 8 C 0.477 12.152 3.838 15.524 7.977 15.524 C 12.115 15.524 15.477 12.152 15.477 8 C 15.477 3.848 12.115 0.476 7.977 0.476 Z  M 7.588 0.475 C 9.752 0.475 11.151 2.19 11.3 4.28 C 11.3 6.307 9.701 7.218 7.461 7.218 L 7.246 7.23 C 4.515 7.355 2.978 9.735 2.978 11.75 C 2.978 12.906 3.429 13.648 4.274 14.528" id="path3871" fill="none" vector-effect="non-scaling-stroke" stroke-width="1" stroke="rgb(255,255,255)" stroke-linejoin="miter" stroke-linecap="butt" stroke-miterlimit="4"/><circle vector-effect="non-scaling-stroke" cx="8.000000000101622" cy="12.210937500000004" r="1.01953125" id="Ellipse" fill="rgb(255,255,255)"/></g><foreignObject requiredExtensions="http://ns.gravit.io/"><gravitDesigner:gravitElementRef xmlns:gravitDesigner="http://ns.gravit.io/" xlink:href="#cy2wjnza3h9Ivi0qRXGfJTIvHPY19cCA"/></foreignObject></switch><gravitDesigner:gravitGraphicSource xmlns:gravitDesigner="http://ns.gravit.io/" id="cy2wjnza3h9Ivi0qRXGfJTIvHPY19cCA" version="1"><![CDATA[eMKcw61Yw7vCr8Kqw5YSw75XGk9zf8Opw67CkcO3Yyc3KQoqwqjDgMOCwo0ow4fCncKGw7dDQAREwrE5w7/DuwVEN8K2J23Dr03Dk8Kkw4nDhQ1bwobCtcK+wplZw7PCrcKZw4FfBj8NXgfCqcOhOcKDwpfDgcO3woPDly/Cv8K0woLDsSFOD8Knw4TDvm7DpRvDqcOzwqPDlCjDvFpgRcKHw5zCsQfCr0V2cl4GacKRw5cDwr4MGMOAMMOAHQ7Ch1fDrMOfw7XCoE/DtQkWw4dDw4QYw6Y+wp/DhgLDjmjCm2PCrmZFRsOiw77DkTJPw4jCqh7DksOgSVd9w5zCmznCq0/CrsKyUSB3wqLDt8KXL8KDw7rDq1DDthjChsOhwrg7w7oiCC17w4LDhcK+wq1nLALCo8KHA2rCscKKwojCnhLDnsKTIyvDrsOQbzPCocOEwobCmDt6KwohBMOswrkbemt7fTofw6jCnmTCrMKuZwUbU8O6QWYrwpLCtGnDky3DijBXwoREOcKEw5cOwr01wpTDocOuM2d3d8OuYC06M8OCGkHDj3Zbw5FJwpfCmxskw4rCnMKSw61qEsODwpARMMKWwpDDssO0w7HCisOLVsKHPmpmwr51wobDnsOQb2DCnTvDr8OvL8KDw4xxwotLMXhNTlHDlMOeGcKJw6UfwrImKMO1w5Mic8OrL8OwC1R/w6DClx/CocOPEMKCYijCiVE4BMOBJEkRw6QLw7bCmW4OHMOHCMKMw4JgGHd+JMOrwpnDpsOhEA1ewrHCl0Fiw4ROF3wEw4fDsR/DicOaworCnyPCo3IaHXdiBEnCscK4wonDusKEMQ/CmcOtZMOyw6NpM8OTPA9ewqHCm0rCmsOGGsKBUcKPwpTDmkfCkVV/w40aw7bDnW7Dg8Knw5vCuMKxw6fDq8OLDcOaDcKiw6gZOC0aw7Z+w7pSG8O5w5LCncOvwoPCr8K1J8O/wqrDpSvChsKvUMKMcBfCvMOCwpnDkMOkw6hOZsOMwpHDsA7CqzlfHUVEHnzCrREcw5fDpWteD8K4CcO0wqbCgcKVw6zCkTDCtQXCsMK+wqBwJMKNIhXDhjFywr7Cp8Ogw4HDncKIw5/DnRBJPsO8AcOMwrYVw4NSw7fCsMOPEVbCkFkyX8Kcw5bDshvCnMKqwpHClMK7wr4Fw5vCrCLDucKxN03CuxhDJW/Cg003wrNhEMKxWMKSQMO3wrbDgcKNw4MNwpQWwq/DnXnCqsKcU8OVwovDnMKTw6rCqgLCpBBBwqxdw5Yxwq3DqgnDlTHCiMOQcxzCrMKgwoRTH8OsJ8KyGmwTwptVw4vCoBodw6fCsBFwKsKfVh/DqMOWwpRiOHHCvsOhfMOAQBJWw4TCocKRw7osI2bDjkjChcKkwqrDqsOQw7nDk8OBe8OMbMKgw6bCuknCgcKpw4fDkcO7BxQQw6fCiXZYex7Cq8KKwoYlbWxiwrUhTSVhcGPCjV1GSGfDlQXCncKqYMKUw6I/cB0UwoHDkTbDoMKnwpvCjsO7DcOUVsOESMO8w60YecOjw4zCtWXDn1BGwrlIb1Y4M3PDrcKVfcKhw69WwpXCuAREwqnDpMKhw4fCrgFqegYcwq0Yw7cdw58GwodlZRt6wqBzwrpPTlVtC8OywqjDkFxTw7Inw7JaHSEpC8KVw6spwpluO3RQGjQQw4rDgFHDu1DDk3M/eTgzLMOJIcK2wrzCnjEvOcORe8OIB8K+WQAPZ2N0wqRBwqDCs8OKw5XDtnXDijxMH8KZIsKJw7Mxw5DCnsKgw5zDi8KEwqrDthFuYXZICRsowr0sw7RcUsKNIylMwrVsw4l1VsOpwpo3w6rDjWzDkE01ZR/CokcewrLCsFEvDwF+IsOEwoExV8ODFFbCiSt6HsKZw6fCs8KHw6sgMcOJw5jDo8OfOnTDhsKrZ8KaAMO+dR7DkinDlMK+wrPCqMK1w505w7fDqcOOwp4pbVzDjcOlw604w4LDjRPDmMOCw7TDqMONwoYOZl0CEMOfJsK8DsK9NcO0Y2bCg8K+wo1rd8OuwqLDhyJPw5Q+w7rDosKIFSsaw4BvIj8Nw7dFwrbCnkPDqjpZwqfCoRfDssOIJsK7wrPDgcKJw6tFXk3DlVspw7nDrxMmTMKRWMKdwql6CcKzEcOiBMKCw5HCtcKoPjAMR8Oxw59Lwphww73CocO+worCpMKJfCNbwprCp8Kiw7jDiMKOwr00CEPDiEt3wr43A8OKWsKxa0TCucOzw4cZwrTDsR3DusOIwp1uwr7DkmEVwrDDnhpiCwh3wqLDicKac10xw5bCr0Y6w5Nxw6Ipd8KOwqvColQYw6NKw7DDl8O9w7ocEsKewonCjVxjLxg+E1HChjZ5w6ROJ8KKwoI0bxrCjD8VwpDDjxBMw6MowozDoMK3w4h8w5xSwp/CocO7AUMwwoEgdUHCg1DCvMKJw5AtPhBKw7TCo8Ozc27Dl8KAw43DisO8w7PCqsKYwqjCoGvDn8KSw5fCp8Kxw6TCkxcGE8KFwpIfHyMaWGbCtjgFw4JTJMKILT0TWMOOOsKtccKiFC0yw59uwr3DosOKeMKxMMOdwrLCmcOLwrTCqE7DqSQHw7tRwrvDvnErwrJQWG5MXBxZPCvCgRfCgjVKwqXCvEzDmMOrKcOKw6DDscOZfFoRClsUw4cqw5PDhMOyw6RBw5ECw4vCri47RlIzZlbCi8KcNsKlBzfCrcKuB8Ouw6rDu2PCkcOaw73Ds8OSw67DrMKGwp3Cg192woPCn3bCg8OXXSvDmQ1edl0rwrDDq8OWc8OXNAPCu8KmG8OYDcKGw6VwCCZORcOVecKoHcO6wqnCvVbDsGjCusOKw6x4wprDq8OqdG8LXMOAw6/DrWTCsRYRdMK8EMOQwrwddMODbhvDi3UPYcOWXsOZwqYFfQDDl8OJclcnZ8KGwpHCh8OocFgnw6fCnsKuwo0fOMOSLMK4BsK0M8OiDsKcwp3CvcKVw4JxacKibDXCjkkoJXvCuloEwooWw609w5PDl8OVworCsSJvCkHCp8Krw7VregnCmjLDk8OTw4UtCsKyw5bDgV/ClEnCkcOzAg7DojAjRcK+w65EfMKDwrfDiklPV8Orw4AUw79Awph9wrjCq8OdwoE7wr/DqsKiw6PDvsOGLw3CpwFdw6HCkiXCnsK8OX5UBHoWwqlKacKLwrzCrV3DhMKKw6vDu8OVVMKyw63DncKBwp5fTWnCvMK7W1fCiV3Cl8KVdl1aw5rDtcOyw5LCrk1MwrsmM8Otw77Ct8OmesOXbjTDnm7CuXN8w7PDl1cqHsOlJ8OnHMKpWljClQjCu8O0PSU+wpLCgTfDs8KSw5bDgBvCh8Obw7FUHMOow5IRISfCisKJwq4owoHClMKww7p9RzdNw7PDjTl4IzPDmg3CvsOWwpzDvS01P8Kow4gIw6wVSMODIRU+U8OxwphNw4fChMOJw4LDhMOSwoLDo8ONwp4xFj7DqmDCrHMkDR/CosKcw556w5nCmmUBw6fCjsOQw4YmwqpyGFjDrDXDoMKeYmMFw5vDjXVOwoTCvMKyw4LClsOpwp7CocOiaHTDlUDCpGHDgsKoCmdqPzbDi3MFHC9mwrknw47DhUENwrxCw6VKZcOuwrrDjsObRQnCmMKQw4TDt0/CusOKJcOPw4jDi8KcwrbDoHHCrMKIw4vCkyvCmnvCl8Kmw57Dikpfw4trwoDDtHTCmcK4agJwR2hBFcKcPABGw5TDsWdywrl+wrzDhCkcS8OnwrhQw6l6wrhQw4fDm8Klwq8Lw6bCmMOSw5Q9QcO1LEVCQgEsbBPDkAN0P1LDqsKXw4t8LD/Dr8KOw7nCucK4worCusKHwoXCghTDrMOnw5VpH8Khwo7CpMKPY8OZwrFHwqvDiMKaw7csbRHDhjNuCj0xwrYVL8KjH8OePnYiw4MHAsKQw6nCq8OxwqxramAHYsKmwobDsnETW8KzwpMWwrFjwpVzw43DqcOZw7ElKV0qPV3CpARbYMOmw5d9KcO3wrdvwoPCk0DCrijCucOuF8O8fAESOcOMSirDngTCi8OwwqjDgFIZw44mwr/DngYsFcKcIF7CoUUWw7MTZwPDrcKFM8O1Viwww63CusKlV8KswrZvwrbDgcO7X8O5QsOca8OrUMKKwoTDv3xDw7fCh8KNw5bCt8K6wrNvwpbDmMOfw6/DuMK+WSDDoT0Swo7Cl8OWwoVKaFsSwrFFeMOxccOCVCTCkGlBdjrDgU8FMnfDoMKMdUrClThAchELDAbDjsOXw7oiwq/CkcOEKU9Uw7Q3NG8ww7IZwoEhGiXCu8OmDcOCw57Dv8OfwrM9w7dswp/CmsOfMzIiJ8KYchNvR8KJDBARw5pOwo01EUvCm8Kzwo3CpsKCwqDDlWbDlcOew4JEw7MOw5TDvjvCuH3DnsKjaMO9w5d0w4XDlsO+V0zDrFjCvsKqYsOzEAXDlnfCmh8Uw453w4jDoMOrfwDDv8K8w5cf]]></gravitDesigner:gravitGraphicSource></svg>
